contributed-vectors/meteo.svg

<svg xmlns="http://www.w3.org/2000/svg" xml:space="preserve" style="fill-rule:evenodd;clip-rule:evenodd;stroke-linejoin:round;stroke-miterlimit:2" viewBox="0 0 192 192"><path d="M164.5 21.5c0-5.519-4.481-10-10-10h-133c-5.519 0-10 4.481-10 10v133c0 5.519 4.481 10 10 10h133c5.519 0 10-4.481 10-10v-133Z" style="fill:#fff" transform="translate(8 8)"/><path d="M82.672 83.333c.471-.927 1.029-1.81 1.691-2.587 2.73-3.204 5.975-9.355 4.216-11.436 0 0 7.818 5.364 6.506 16.312.848-.602 1.752-1.124 2.699-1.504 3.906-1.569 9.638-5.507 9.048-8.167 0 0 4.43 8.383-1.82 17.467 1.03-.139 2.074-.181 3.089-.078 4.188.426 11.093-.397 11.807-3.026 0 0 .027 9.481-9.729 14.62.977.356 1.921.804 2.771 1.367 3.51 2.323 10.007 4.804 11.862 2.807 0 0-4.383 8.408-15.409 8.424.699.769 1.327 1.604 1.818 2.499 2.028 3.688 6.628 8.904 9.198 7.997 0 0-7.787 5.408-17.559.299.262 1.006.43 2.037.45 3.057.081 4.208 1.731 10.964 4.427 11.356 0 0-9.409 1.169-15.686-7.896-.236 1.013-.566 2.004-1.023 2.916-1.883 3.764-3.563 10.513-1.357 12.113 0 0-8.874-3.337-10.22-14.281-.679.787-1.433 1.511-2.261 2.107-3.417 2.457-8.04 7.653-6.831 10.095 0 0-6.307-7.08-2.412-17.395-.968.381-1.971.671-2.981.814-4.168.588-10.676 3.04-10.74 5.764 0 0-2.295-9.199 5.948-16.523-1.034-.112-2.057-.321-3.018-.664-3.964-1.416-10.866-2.27-12.189.113 0 0 2.243-9.212 12.946-11.867-.864-.58-1.673-1.24-2.364-1.991-2.852-3.096-8.567-7.059-10.845-5.564 0 0 6.267-7.115 16.977-4.492-.495-.914-.904-1.875-1.167-2.861-1.087-4.066-4.305-10.232-7.017-9.966 0 0 8.855-3.387 17.12 3.912-.014-1.04.07-2.081.295-3.076.928-4.106.944-11.06-1.581-12.086 0 0 9.415 1.117 13.341 11.421Zm2.829 20.582c-1.181.757-2.099.671-2.814.069-.694 1.22-1.547 1.57-2.46 1.369-.047 1.402-.64 2.109-1.541 2.355.609 1.264.413 2.165-.271 2.802 1.127.835 1.372 1.725 1.062 2.606 1.387.216 2.017.89 2.152 1.815 1.329-.453 2.2-.15 2.749.606.966-1.018 1.878-1.154 2.716-.74.382-1.351 1.126-1.895 2.061-1.918-.29-1.373.117-2.201.933-2.656-.894-1.081-.919-2.003-.408-2.785-1.294-.541-1.745-1.346-1.655-2.277-1.398.122-2.171-.381-2.524-1.246Z" style="fill:#f8c18c" transform="translate(11.242 -13.592)"/><circle cx="84.234" cy="109.658" r="23.573" style="fill:#f9de81" transform="translate(11.242 -13.592)"/></svg>

<?xml version="1.0" encoding="UTF-8" standalone="no"?>
<!DOCTYPE svg PUBLIC "-//W3C//DTD SVG 1.1//EN" "http://www.w3.org/Graphics/SVG/1.1/DTD/svg11.dtd">
<svg width="100%" height="100%" viewBox="0 0 192 192" version="1.1" xmlns="http://www.w3.org/2000/svg" xmlns:xlink="http://www.w3.org/1999/xlink" xml:space="preserve" xmlns:serif="http://www.serif.com/" style="fill-rule:evenodd;clip-rule:evenodd;stroke-linejoin:round;stroke-miterlimit:2;">
    <g id="Layer2">
        <g transform="matrix(1,0,0,1,8,8)">
            <path d="M164.5,21.5C164.5,15.981 160.019,11.5 154.5,11.5L21.5,11.5C15.981,11.5 11.5,15.981 11.5,21.5L11.5,154.5C11.5,160.019 15.981,164.5 21.5,164.5L154.5,164.5C160.019,164.5 164.5,160.019 164.5,154.5L164.5,21.5Z" style="fill:white;"/>
        </g>
        <g transform="matrix(0.839576,0,0,0.839576,-9.85828,-13.9767)">
            <g transform="matrix(1.19108,0,0,1.19108,25.1322,0.458735)">
                <path d="M82.672,83.333C83.143,82.406 83.701,81.523 84.363,80.746C87.093,77.542 90.338,71.391 88.579,69.31C88.579,69.31 96.397,74.674 95.085,85.622C95.933,85.02 96.837,84.498 97.784,84.118C101.69,82.549 107.422,78.611 106.832,75.951C106.832,75.951 111.262,84.334 105.012,93.418C106.042,93.279 107.086,93.237 108.101,93.34C112.289,93.766 119.194,92.943 119.908,90.314C119.908,90.314 119.935,99.795 110.179,104.934C111.156,105.29 112.1,105.738 112.95,106.301C116.46,108.624 122.957,111.105 124.812,109.108C124.812,109.108 120.429,117.516 109.403,117.532C110.102,118.301 110.73,119.136 111.221,120.031C113.249,123.719 117.849,128.935 120.419,128.028C120.419,128.028 112.632,133.436 102.86,128.327C103.122,129.333 103.29,130.364 103.31,131.384C103.391,135.592 105.041,142.348 107.737,142.74C107.737,142.74 98.328,143.909 92.051,134.844C91.815,135.857 91.485,136.848 91.028,137.76C89.145,141.524 87.465,148.273 89.671,149.873C89.671,149.873 80.797,146.536 79.451,135.592C78.772,136.379 78.018,137.103 77.19,137.699C73.773,140.156 69.15,145.352 70.359,147.794C70.359,147.794 64.052,140.714 67.947,130.399C66.979,130.78 65.976,131.07 64.966,131.213C60.798,131.801 54.29,134.253 54.226,136.977C54.226,136.977 51.931,127.778 60.174,120.454C59.14,120.342 58.117,120.133 57.156,119.79C53.192,118.374 46.29,117.52 44.967,119.903C44.967,119.903 47.21,110.691 57.913,108.036C57.049,107.456 56.24,106.796 55.549,106.045C52.697,102.949 46.982,98.986 44.704,100.481C44.704,100.481 50.971,93.366 61.681,95.989C61.186,95.075 60.777,94.114 60.514,93.128C59.427,89.062 56.209,82.896 53.497,83.162C53.497,83.162 62.352,79.775 70.617,87.074C70.603,86.034 70.687,84.993 70.912,83.998C71.84,79.892 71.856,72.938 69.331,71.912C69.331,71.912 78.746,73.029 82.672,83.333ZM85.501,103.915C84.32,104.672 83.402,104.586 82.687,103.984C81.993,105.204 81.14,105.554 80.227,105.353C80.18,106.755 79.587,107.462 78.686,107.708C79.295,108.972 79.099,109.873 78.415,110.51C79.542,111.345 79.787,112.235 79.477,113.116C80.864,113.332 81.494,114.006 81.629,114.931C82.958,114.478 83.829,114.781 84.378,115.537C85.344,114.519 86.256,114.383 87.094,114.797C87.476,113.446 88.22,112.902 89.155,112.879C88.865,111.506 89.272,110.678 90.088,110.223C89.194,109.142 89.169,108.22 89.68,107.438C88.386,106.897 87.935,106.092 88.025,105.161C86.627,105.283 85.854,104.78 85.501,103.915Z" style="fill:rgb(248,193,140);"/>
            </g>
            <g transform="matrix(1.19108,0,0,1.19108,25.1322,0.458735)">
                <circle cx="84.234" cy="109.658" r="23.573" style="fill:rgb(249,222,129);"/>
            </g>
        </g>
    </g>
</svg>
